src/icons/folder-themes.svg

<?xml version="1.0" encoding="UTF-8" standalone="no"?>
<svg
   version="1.2"
   viewBox="0 0 16 16"
   width="16"
   height="16"
   id="svg1"
   sodipodi:docname="themes.svg"
   inkscape:version="1.4 (e7c3feb100, 2024-10-09)"
   xmlns:inkscape="http://www.inkscape.org/namespaces/inkscape"
   xmlns:sodipodi="http://sodipodi.sourceforge.net/DTD/sodipodi-0.dtd"
   xmlns="http://www.w3.org/2000/svg"
   xmlns:svg="http://www.w3.org/2000/svg">
  <defs
     id="defs1" />
  <sodipodi:namedview
     id="namedview1"
     pagecolor="#505050"
     bordercolor="#eeeeee"
     borderopacity="1"
     inkscape:showpageshadow="0"
     inkscape:pageopacity="0"
     inkscape:pagecheckerboard="0"
     inkscape:deskcolor="#505050"
     inkscape:zoom="37.75"
     inkscape:cx="7.986755"
     inkscape:cy="8"
     inkscape:window-width="1316"
     inkscape:window-height="755"
     inkscape:window-x="20"
     inkscape:window-y="20"
     inkscape:window-maximized="0"
     inkscape:current-layer="svg1" />
  <title
     id="title1">folder</title>
  <style
     id="style1">
		.s0 { fill: #8080a0 }
		.s1 { fill: #F17F66 }
	</style>
  <path
     id="path1"
     class="s0"
     d="M 4.1992188,1 C 3.0992187,1 2.4996094,0.99921875 2.0996094,1.1992188 c -0.4,0.2 -0.7003906,0.5003906 -0.9003906,0.9003906 C 0.99921875,2.4996094 1,3.0992187 1,4.1992188 V 9 c 0,1.4 7.812e-4,2.099609 0.3007812,2.599609 0.2,0.5 0.5996094,0.89961 1.0996094,1.09961 C 2.9003906,12.999219 3.6,13 5,13 H 6.4238281 C 5.5909494,12.029912 5.0996094,10.765577 5.0996094,9.5 c 0,-1.4 0.5996094,-2.8007813 1.5996094,-3.8007812 1,-1 2.4007812,-1.5996094 3.8007812,-1.5996094 1.311469,0 2.507688,0.400796 3.439453,1.078125 -0.0424,-0.3173668 -0.114299,-0.5674516 -0.240234,-0.7773438 -0.2,-0.5 -0.59961,-0.8996093 -1.09961,-1.0996094 C 12.099609,3.0007813 11.4,3 10,3 H 8.3007812 8.0996094 C 8.0329427,3 7.9670573,2.9670573 7.9003906,2.9003906 L 7.8007812,2.8007812 7.1992188,2.1992188 c -0.5,-0.5 -0.6984375,-0.6988282 -0.8984376,-0.7988282 C 6.0341146,1.2670573 5.7666667,1.166276 5.5,1.0996094 5.3,0.99960938 5.0007813,1 4.3007812,1 Z"
     sodipodi:nodetypes="sssssccscssscccscsscsscss" />
  <path
     id="path2"
     class="s1"
     d="M 10.5 5.5 C 9.4 5.5 8.3992187 5.8992187 7.6992188 6.6992188 C 6.8992186 7.3992186 6.5 8.4 6.5 9.5 C 6.5 10.6 6.8992187 11.600781 7.6992188 12.300781 C 8.3992187 13.100781 9.4 13.5 10.5 13.5 C 10.633333 13.5 10.734115 13.467057 10.800781 13.400391 C 10.934115 13.333724 11.032943 13.265885 11.099609 13.199219 C 11.166276 13.065885 11.166276 12.934115 11.099609 12.800781 C 11.099609 12.667448 11.033724 12.566667 10.900391 12.5 C 10.767057 12.366667 10.666276 12.232943 10.599609 12.099609 C 10.466276 11.899609 10.433333 11.7 10.5 11.5 C 10.566667 11.3 10.667448 11.133333 10.800781 11 C 11.000781 10.866667 11.200391 10.800781 11.400391 10.800781 L 12.5 10.800781 C 13 10.800781 13.500391 10.600781 13.900391 10.300781 C 14.300391 10.000781 14.5 9.4996094 14.5 9.0996094 C 14.5 7.0996094 12.7 5.5 10.5 5.5 z M 10.662109 7 C 10.674408 6.9994202 10.686719 7 10.699219 7 C 11.199219 7 11.5 7.3007813 11.5 7.8007812 C 11.5 8.1861237 11.221334 8.479078 10.753906 8.5 C 10.281735 8.4819305 10 8.1835938 10 7.6992188 C 10 7.3117187 10.280853 7.0179749 10.662109 7 z M 8.6621094 8 C 8.674408 7.9994202 8.6867188 8 8.6992188 8 C 9.1992188 8 9.5 8.3007812 9.5 8.8007812 C 9.5 9.1861238 9.2213345 9.479078 8.7539062 9.5 C 8.2817353 9.4819305 8 9.1835938 8 8.6992188 C 8 8.3117186 8.2808533 8.0179749 8.6621094 8 z M 12.662109 8 C 12.674408 7.9994202 12.686719 8 12.699219 8 C 13.199219 8 13.5 8.3007812 13.5 8.8007812 C 13.5 9.1861239 13.221334 9.479078 12.753906 9.5 C 12.281735 9.4819305 12 9.1835938 12 8.6992188 C 12 8.3117186 12.280853 8.0179749 12.662109 8 z " />
</svg>

<svg xmlns="http://www.w3.org/2000/svg" width="16" height="16" version="1.2"><path d="M4.2 1c-1.1 0-1.7 0-2.1.2q-.6.3-.9.9c-.2.4-.2 1-.2 2.1V9c0 1.4 0 2.1.3 2.6.2.5.6.9 1.1 1.1.5.3 1.2.3 2.6.3h1.424C5.59 12.03 5.1 10.766 5.1 9.5c0-1.4.6-2.8 1.6-3.8s2.4-1.6 3.8-1.6c1.311 0 2.508.4 3.44 1.078-.043-.318-.115-.568-.24-.778-.2-.5-.6-.9-1.1-1.1C12.1 3 11.4 3 10 3H8.1q-.1 0-.2-.1l-.1-.1-.6-.6c-.5-.5-.7-.7-.9-.8a4 4 0 0 0-.8-.3C5.3 1 5 1 4.3 1Z" style="fill:#8080a0"/><path d="M10.5 5.5c-1.1 0-2.1.4-2.8 1.2-.8.7-1.2 1.7-1.2 2.8s.4 2.1 1.2 2.8c.7.8 1.7 1.2 2.8 1.2q.2 0 .3-.1.2-.1.3-.2a.42.42 0 0 0 0-.4q0-.2-.2-.3a1.6 1.6 0 0 1-.3-.4q-.2-.3-.1-.6t.3-.5q.3-.2.6-.2h1.1c.5 0 1-.2 1.4-.5s.6-.8.6-1.2c0-2-1.8-3.6-4-3.6m.162 1.5h.037c.5 0 .801.3.801.8 0 .386-.279.68-.746.7-.472-.018-.754-.316-.754-.8 0-.388.28-.682.662-.7m-2 1H8.7c.5 0 .801.3.801.8 0 .386-.279.68-.746.7C8.282 9.482 8 9.184 8 8.7c0-.388.28-.682.662-.7m4 0h.037c.5 0 .801.3.801.8 0 .386-.279.68-.746.7-.472-.018-.754-.316-.754-.8 0-.388.28-.682.662-.7" style="fill:#f17f66"/></svg>
